X:97
T:Obal Dins Lou Limouzi
R:Bourre
M:3/8
L:1/8
N:La Bourre 4th edition 1929, page 93
Z:Steve Mansfield www.lesession.co.uk June 2012
K:Bb
f | f e/ f/ e/ d/ | c/ d/ e f | 
f e/ f/ e/ d/ | c2 f | f e/ f/ e/ d/ | c/ d/ e f |
f e/ f/ e/ d/ | c2 B || c/ d/ e c | c B c | d c2 |
F2 B | c/ d/ e c | c B c | d c2 | B3 |]
<end>
<start>
